symbols/web/group/materialsymbolsoutlined/group_wght700grad200_40px.svg

<svg xmlns="http://www.w3.org/2000/svg" height="40" width="40"><path d="M.417 35.208V29.75q0-1.792.916-3.25.917-1.458 2.542-2.208 3-1.375 5.667-2.021 2.666-.646 5.416-.646 2.875 0 5.521.646t5.646 2.021q1.583.708 2.521 2.146.937 1.437.937 3.312v5.458Zm32.5 0v-5.5q0-2.458-1.229-4.333-1.23-1.875-3.396-3.542 2.291.375 4.333.979 2.042.605 3.583 1.355 1.542.833 2.48 2.291.937 1.459.937 3.375v5.375ZM15 19.333q-3.083 0-5.062-1.958-1.98-1.958-1.98-5.042 0-3.083 1.98-5.062Q11.917 5.292 15 5.292q3 0 5.021 1.979t2.021 5.021q0 3.125-2 5.083-2 1.958-5.042 1.958Zm10.375 0q-.542 0-1.104-.083-.563-.083-1.188-.292Q24.25 17.667 24.792 16q.541-1.667.541-3.667 0-2-.562-3.645-.563-1.646-1.688-3.021.542-.167 1.146-.271.604-.104 1.146-.104 3 0 5.021 2t2.021 5q0 3.083-2.021 5.062t-5.021 1.979ZM4.833 30.792h20.292v-.834q0-.583-.333-1.104-.334-.521-.834-.729-2.583-1.167-4.583-1.604-2-.438-4.417-.438-2.291 0-4.375.438Q8.5 26.958 6 28.125q-.5.208-.833.729-.334.521-.334 1.104Zm10.125-15.375q1.334 0 2.271-.875.938-.875.938-2.209 0-1.333-.917-2.229-.917-.896-2.25-.896-1.375 0-2.25.896t-.875 2.188q0 1.375.875 2.25t2.208.875Zm0 15.375ZM15 12.333Z"/></svg>

<svg xmlns="http://www.w3.org/2000/svg" height="40" width="40"><path d="M0.417 35.208V29.75Q0.417 27.958 1.333 26.5Q2.25 25.042 3.875 24.292Q6.875 22.917 9.542 22.271Q12.208 21.625 14.958 21.625Q17.833 21.625 20.479 22.271Q23.125 22.917 26.125 24.292Q27.708 25 28.646 26.438Q29.583 27.875 29.583 29.75V35.208ZM28.292 21.833Q30.583 22.208 32.625 22.812Q34.667 23.417 36.208 24.167Q37.75 25 38.688 26.458Q39.625 27.917 39.625 29.833V35.208H32.917V29.708Q32.917 27.25 31.688 25.375Q30.458 23.5 28.292 21.833ZM15 19.333Q11.917 19.333 9.938 17.375Q7.958 15.417 7.958 12.333Q7.958 9.25 9.938 7.271Q11.917 5.292 15 5.292Q18 5.292 20.021 7.271Q22.042 9.25 22.042 12.292Q22.042 15.417 20.042 17.375Q18.042 19.333 15 19.333ZM32.417 12.292Q32.417 15.375 30.396 17.354Q28.375 19.333 25.375 19.333Q24.833 19.333 24.271 19.25Q23.708 19.167 23.083 18.958Q24.25 17.667 24.792 16Q25.333 14.333 25.333 12.333Q25.333 10.333 24.771 8.688Q24.208 7.042 23.083 5.667Q23.625 5.5 24.229 5.396Q24.833 5.292 25.375 5.292Q28.375 5.292 30.396 7.292Q32.417 9.292 32.417 12.292ZM4.833 30.792H25.125V29.958Q25.125 29.375 24.792 28.854Q24.458 28.333 23.958 28.125Q21.375 26.958 19.375 26.521Q17.375 26.083 14.958 26.083Q12.667 26.083 10.583 26.521Q8.5 26.958 6 28.125Q5.5 28.333 5.167 28.854Q4.833 29.375 4.833 29.958ZM14.958 15.417Q16.292 15.417 17.229 14.542Q18.167 13.667 18.167 12.333Q18.167 11 17.25 10.104Q16.333 9.208 15 9.208Q13.625 9.208 12.75 10.104Q11.875 11 11.875 12.292Q11.875 13.667 12.75 14.542Q13.625 15.417 14.958 15.417ZM15 12.333Q15 12.333 15 12.333Q15 12.333 15 12.333Q15 12.333 15 12.333Q15 12.333 15 12.333Q15 12.333 15 12.333Q15 12.333 15 12.333Q15 12.333 15 12.333Q15 12.333 15 12.333ZM14.958 26.083Q14.958 26.083 14.958 26.083Q14.958 26.083 14.958 26.083Q14.958 26.083 14.958 26.083Q14.958 26.083 14.958 26.083Q14.958 26.083 14.958 26.083Q14.958 26.083 14.958 26.083Q14.958 26.083 14.958 26.083Q14.958 26.083 14.958 26.083Z"/></svg>
